paymentMethods/applePay.svg

<svg width="128" height="64" viewBox="0 0 128 64" fill="none" xmlns="http://www.w3.org/2000/svg">
<rect width="128" height="64" rx="6" fill="white"/>
<path d="M38.1406 21.4C39.167 20.1736 39.6737 18.5947 39.5526 17C37.9863 17.1495 36.5385 17.8991 35.5126 19.092C34.6366 20.104 33.8606 21.756 34.0606 23.308C35.6126 23.44 37.1606 22.532 38.1406 21.384" fill="black"/>
<path d="M39.5366 23.616C37.2846 23.484 35.3686 24.896 34.2966 24.896C33.2246 24.896 31.5726 23.696 29.7926 23.696C28.6335 23.7255 27.5024 24.0578 26.5116 24.6599C25.5207 25.262 24.7047 26.1129 24.1446 27.128C21.7446 31.296 23.5086 37.484 25.8606 40.88C27.0006 42.58 28.4006 44.416 30.1926 44.364C31.9086 44.296 32.5926 43.256 34.6646 43.256C36.7366 43.256 37.3526 44.364 39.1686 44.332C41.0486 44.296 42.2246 42.648 43.3686 40.968C44.1802 39.7771 44.8136 38.474 45.2486 37.1C45.2166 37.068 41.6206 35.688 41.5886 31.552C41.5526 28.088 44.3886 26.44 44.5446 26.352C42.9446 23.952 40.4126 23.696 39.5366 23.628" fill="black"/>
<path d="M62.0006 18.94C66.8966 18.94 70.3046 22.312 70.3046 27.224C70.3046 32.136 66.8246 35.544 61.8806 35.544H56.4486V44.164H52.5326V18.94H62.0006ZM56.4606 32.26H60.9526C64.3606 32.26 66.3006 30.424 66.3006 27.244C66.3006 24.064 64.3606 22.244 60.9686 22.244H56.4486V32.244L56.4606 32.26Z" fill="black"/>
<path d="M71.2646 38.936C71.2646 35.704 73.7286 33.848 78.2726 33.572L83.1486 33.272V31.876C83.1486 29.828 81.8046 28.712 79.4086 28.712C77.4326 28.712 76.0006 29.724 75.7046 31.28H72.1726C72.2766 28.012 75.3526 25.636 79.5126 25.636C83.9886 25.636 86.9086 27.976 86.9086 31.612V44.164H83.2886V41.14H83.2006C82.1726 43.116 79.9006 44.34 77.4326 44.34C73.7966 44.356 71.2646 42.188 71.2646 38.936ZM83.1486 37.312V35.896L78.8006 36.176C76.3526 36.332 75.0766 37.24 75.0766 38.832C75.0766 40.424 76.4046 41.368 78.4846 41.368C81.1406 41.368 83.1486 39.672 83.1486 37.312Z" fill="black"/>
<path d="M90.2366 50.912V47.888C90.4806 47.92 91.0726 47.956 91.3886 47.956C93.1206 47.956 94.0966 47.224 94.6926 45.336L95.0406 44.216L88.4006 25.86H92.4926L97.1206 40.756H97.2006L101.817 25.86H105.817L98.9406 45.144C97.3686 49.564 95.5646 51.016 91.7406 51.016C91.2375 51.0154 90.735 50.9806 90.2366 50.912V50.912Z" fill="black"/>
</svg>

<svg xmlns="http://www.w3.org/2000/svg" width="128" height="64" fill="none"><rect width="128" height="64" fill="#fff" rx="6"/><path fill="#000" d="M38.14 21.4a6.132 6.132 0 0 0 1.413-4.4c-1.567.15-3.014.9-4.04 2.092-.876 1.012-1.652 2.664-1.452 4.216 1.552.132 3.1-.776 4.08-1.924M39.537 23.616c-2.252-.132-4.168 1.28-5.24 1.28s-2.724-1.2-4.504-1.2a6.643 6.643 0 0 0-5.648 3.432c-2.4 4.168-.636 10.356 1.716 13.752 1.14 1.7 2.54 3.536 4.332 3.484 1.716-.068 2.4-1.108 4.472-1.108 2.072 0 2.688 1.108 4.504 1.076 1.88-.036 3.056-1.684 4.2-3.364a14.801 14.801 0 0 0 1.88-3.868c-.032-.032-3.628-1.412-3.66-5.548-.036-3.464 2.8-5.112 2.956-5.2-1.6-2.4-4.132-2.656-5.008-2.724M62 18.94c4.897 0 8.305 3.372 8.305 8.284 0 4.912-3.48 8.32-8.424 8.32h-5.432v8.62h-3.916V18.94H62Zm-5.54 13.32h4.493c3.408 0 5.348-1.836 5.348-5.016 0-3.18-1.94-5-5.332-5h-4.52v10l.012.016ZM71.265 38.936c0-3.232 2.464-5.088 7.008-5.364l4.876-.3v-1.396c0-2.048-1.344-3.164-3.74-3.164-1.976 0-3.408 1.012-3.704 2.568h-3.532c.104-3.268 3.18-5.644 7.34-5.644 4.476 0 7.396 2.34 7.396 5.976v12.552h-3.62V41.14H83.2c-1.028 1.976-3.3 3.2-5.768 3.2-3.636.016-6.168-2.152-6.168-5.404Zm11.884-1.624v-1.416l-4.348.28c-2.448.156-3.724 1.064-3.724 2.656s1.328 2.536 3.408 2.536c2.656 0 4.664-1.696 4.664-4.056ZM90.237 50.912v-3.024c.244.032.836.068 1.152.068 1.732 0 2.708-.732 3.304-2.62l.348-1.12L88.4 25.86h4.092l4.628 14.896h.08l4.616-14.896h4l-6.876 19.284c-1.572 4.42-3.376 5.872-7.2 5.872-.504 0-1.006-.035-1.504-.104Z"/></svg>
